X: 32523
T: Planxty Dave
R: waltz
M: 3/4
K: Gmajor
GA|"G" B3 B AG|"G7" B3 e dB|"C" A3 B AG|"Am7" E4 FG|
"D7" A3 A GF|f3 f ed|"G" e4 dB|"D7" d4 GA|
"G" B3 B AG|"G7" B3 e dB|"C" A3 G E2|"Am7" g4 fe|
"G/D" e d3 ed|"D7" d F3 BA|"C" A3 G2 G|"G" (G5|G5):|

